X: 7844
T: Coming Of Spring, The
R: jig
M: 6/8
K: Edorian
A|:BEE Bc/B/A|BdB BAG|~F3 DFA|dfe dBA|
BEE Bc/B/A|Bef gfe|dBG FGA|1 BGE E3:|2 BGE E2F||
|:GEF G2A|Bc/B/A Bec|dAA BAG|GAF DEF|
G2E FGA|Bef gfe|dBG FGA|1 BGE E2F:|2 BGE E2f||
~g2e ege|Beg bag|~f2d dcd|AFA def|
~g2e efe|Beg bag|fed f/g/af|ged e2f|
~g2e efe|Beg bag|~f2d dcd|AFA def|
~g2e fed|Bec dfe|dBG FGA|BGE E2A||

